X:1
T:I'm Never To Marry
M:3/4
L:1/4
K:C
 C| C E(3E3.99999962500005/11.9999985000002E3.99999962500005/11.9999985000002C3.99999962500005/11.9999985000002E3.99999962500005/11.9999985000002C3.99999962500005/11.9999985000002G,3.99999962500005/11.9999985000002|\
 B, D2-| D2E/2-D/2| C E(3E3.99999962500005/11.9999985000002E3.99999962500005/11.9999985000002F3.99999962500005/11.9999985000002E3.99999962500005/11.9999985000002F3.99999962500005/11.9999985000002G3.99999962500005/11.9999985000002|\
 F2 F| F AF/2-C/2| E G2-| G z E/2C/2| G,E/2-C/2 D| C2||
